src/components/Careers/Benefits/images/retirement.svg

<svg xmlns="http://www.w3.org/2000/svg" width="61" height="67" fill="none" viewBox="0 0 61 67"><g opacity=".8"><path stroke="#FF8A00" stroke-linecap="round" stroke-opacity=".8" stroke-width="4.657" d="M2.75 3L14.879 33.1586C16.194 36.4283 19.5465 38.4017 23.0435 37.9646L42.5156 35.5306C44.1644 35.3245 45.8358 35.6529 47.284 36.4675L51.264 38.7063"/><path stroke="#FF8A00" stroke-linecap="round" stroke-opacity=".6" stroke-width="4.657" d="M17.1101 21.2413C17.1101 21.2413 28.3654 18.9126 30.3059 18.9126C34.6462 18.9126 37.292 23.5699 37.292 23.5699M25.6486 44.528L20.9913 53.8427M40.785 44.528L46.2185 55.007M9.3479 53.8427C9.3479 53.8427 20.1407 62.4215 32.6346 63.5455C47.719 64.9025 58.25 55.007 58.25 55.007"/></g></svg>

<svg fill="none" viewBox="0 0 61 67"><g stroke="#FF8A00" stroke-linecap="round" stroke-width="4.657" opacity=".8"><path stroke-opacity=".8" d="M2.75 3l12.129 30.159a7.762 7.762 0 008.165 4.806l19.472-2.434a7.762 7.762 0 014.768.937l3.98 2.238"/><path stroke-opacity=".6" d="M17.11 21.241s11.255-2.328 13.196-2.328c4.34 0 6.986 4.657 6.986 4.657M25.649 44.528l-4.658 9.315m19.794-9.315l5.434 10.479M9.347 53.843s10.793 8.578 23.287 9.702c15.084 1.358 25.615-8.538 25.615-8.538"/></g></svg>
